assets/icons/qvision/brightness_auto.svg

<svg xmlns="http://www.w3.org/2000/svg" height="24" viewBox="0 0 24 24" width="24"><path d="M0 0h24v24H0z" fill="none"/><path d="M10.85 12.65h2.3L12 9l-1.15 3.65zM20 8.69V4h-4.69L12 .69 8.69 4H4v4.69L.69 12 4 15.31V20h4.69L12 23.31 15.31 20H20v-4.69L23.31 12 20 8.69zM14.3 16l-.7-2h-3.2l-.7 2H7.8L11 7h2l3.2 9h-1.9z"/></svg>

<svg width="24" height="24" viewBox="0 0 24 24" fill="none" xmlns="http://www.w3.org/2000/svg">
<g clip-path="url(#clip0_147_2364)">
<path d="M10.85 12.65H13.15L12 9L10.85 12.65ZM20 8.69V4H15.31L12 0.690002L8.69 4H4V8.69L0.690002 12L4 15.31V20H8.69L12 23.31L15.31 20H20V15.31L23.31 12L20 8.69ZM14.3 16L13.6 14H10.4L9.7 16H7.8L11 7H13L16.2 16H14.3Z" fill="#323232"/>
</g>
<defs>
<clipPath id="clip0_147_2364">
<rect width="24" height="24" fill="white"/>
</clipPath>
</defs>
</svg>
